static/images/user-logos/agildata.svg

<svg viewBox="0 0 200 33.5" xmlns="http://www.w3.org/2000/svg"><path d="m44 9.8h.2l8.3 19.7h-.6l-2.5-5.9h-10.6l-2.5 5.9h-.6zm-5 13.3h10.3l-5.1-12.2zm36.5-10.3c-1.3-1.5-3.3-2.5-6.4-2.5-7.8 0-8.9 7-8.9 9.4s1.1 9.5 8.9 9.5c3 0 5-.9 6.4-2.4v-5.6h-5.1v-.5h5.6v6.3c-1.5 1.6-3.7 2.7-7 2.7-7.4 0-9.5-5.8-9.5-10 0-4 2.2-10 9.5-10 3.2 0 5.4 1.1 6.8 2.7zm11.2 16.7h-.6v-19.5h.6zm11.8-.6h9.1v.6h-9.7v-19.5h.6zm19.1.6v-19.5h6.6c7.5 0 9.4 6.1 9.4 9.7 0 3.7-2 9.8-9.4 9.8zm6.5-.6c7.5 0 8.9-6.3 8.9-9.2 0-2.8-1.4-9.2-8.9-9.2h-5.8v18.4zm24.9-19.1h.2l8.3 19.7h-.6l-2.5-5.9h-10.7l-2.5 5.9h-.6zm-5.1 13.3h10.3l-5.1-12.2zm25.7 6.4h-.6v-19h-6.6v-.5h13.8v.6h-6.6zm19.9-19.7h.2l8.3 19.7h-.6l-2.5-5.9h-10.7l-2.5 5.9h-.6zm-5.1 13.3h10.3l-5.1-12.2z" fill="#7b7b7b" stroke="#7b7b7b" stroke-miterlimit="10" stroke-width=".25"/><g fill="#b92025"><path d="m28.9 14.2-9.5 8.6 2.8 6.7z"/><path d="m28.9 14.2-13.8-.8 2.8 6.5z"/><path d="m28.9 14.2-18.6-11.6 3.4 7.6z"/><path d="m6.4 11.6.5-.1 3.6-8.4-.2-.5z"/><path d="m5 15-3 7h.5l3-7.1z"/><path d="m7 14.7-.6.1-3 7.1.5-.1z"/><path d="m2.1 25 .3.3.2-.3z"/><path d="m8.4 11.2 2.8-6.5-.2-.6-3.1 7.2z"/><path d="m9.9 10.9 2-4.7-.2-.5-2.3 5.4z"/><path d="m7.9 14.5-3.1 7.2.6-.1 3-7.2z"/><path d="m3.5 24.9-.4.9.4.3.5-1.3z"/><path d="m4.9 24.7-.8 1.9.4.3 1-2.3z"/><path d="m11.4 10.7 1.2-2.9-.2-.5-1.5 3.5z"/><path d="m9.4 14.3-3.1 7.2.5-.1 3.1-7.2z"/><path d="m7.8 21.3.5-.1 3.1-7.2-.6.1z"/><path d="m6.4 24.5-1.2 2.9.3.2 1.4-3.2z"/><path d="m12.9 10.4.4-1-.2-.6-.7 1.7z"/><path d="m9.7 21 3.1-7.2h-.5l-3.1 7.3z"/><path d="m7.8 24.3-1.6 3.8.4.3 1.8-4.2z"/><path d="m9.3 24.1-2.1 4.8.4.3 2.2-5.2z"/><path d="m11.2 20.8 3.1-7.3-.5.1-3.1 7.3z"/><path d="m10.7 23.9-2.3 5.6h.5l2.4-5.6z"/><path d="m12.6 20.7 2.8-6.5-.3-.5-3 7z"/><path d="m14.1 20.5 2-4.7-.3-.6-2.2 5.3z"/><path d="m12.2 23.7-2.5 5.8h.5l2.5-5.8z"/><path d="m15.5 20.3 1.3-2.9-.3-.6-1.5 3.5z"/><path d="m13.7 23.6-2.6 5.9h.5l2.6-6z"/><path d="m15.1 23.4-2.6 6.1h.5l2.6-6.2z"/><path d="m17 20.1.5-1.1-.3-.6-.7 1.8z"/><path d="m16.6 23.2-2.8 6.3h.5l2.8-6.4z"/><path d="m18 23-2.8 6.5h.5l2.8-6.6z"/><path d="m19.4 22.9-2.8 6.6h.5l2.6-6z"/><path d="m20.1 24.5-2.1 5h.5l1.9-4.4z"/><path d="m20.8 26.1-1.5 3.4h.5l1.2-2.8z"/><path d="m21.5 27.7-.8 1.8h.5l.5-1.2z"/><path d="m22.2 29.3-.1.2h.1z"/></g></svg>

<svg xmlns="http://www.w3.org/2000/svg" viewBox="0 0 200 33.5"><style>.st0{fill:#7b7b7b;stroke:#7b7b7b;stroke-width:.25;stroke-miterlimit:10}.st1{fill:#b92025}</style><g id="type"><path class="st0" d="M44 9.8h.2l8.3 19.7h-.6l-2.5-5.9H38.8l-2.5 5.9h-.6L44 9.8zm-5 13.3h10.3l-5.1-12.2L39 23.1zm36.5-10.3c-1.3-1.5-3.3-2.5-6.4-2.5-7.8 0-8.9 7-8.9 9.4s1.1 9.5 8.9 9.5c3 0 5-.9 6.4-2.4v-5.6h-5.1v-.5H76V27c-1.5 1.6-3.7 2.7-7 2.7-7.4 0-9.5-5.8-9.5-10 0-4 2.2-10 9.5-10 3.2 0 5.4 1.1 6.8 2.7l-.3.4zm11.2 16.7h-.6V10h.6v19.5zm11.8-.6h9.1v.6h-9.7V10h.6v18.9zm19.1.6V10h6.6c7.5 0 9.4 6.1 9.4 9.7 0 3.7-2 9.8-9.4 9.8h-6.6zm6.5-.6c7.5 0 8.9-6.3 8.9-9.2 0-2.8-1.4-9.2-8.9-9.2h-5.8v18.4h5.8zM149 9.8h.2l8.3 19.7h-.6l-2.5-5.9h-10.7l-2.5 5.9h-.6L149 9.8zm-5.1 13.3h10.3l-5.1-12.2-5.2 12.2zm25.7 6.4h-.6v-19h-6.6V10h13.8v.6h-6.6v18.9zm19.9-19.7h.2l8.3 19.7h-.6l-2.5-5.9h-10.7l-2.5 5.9h-.6l8.4-19.7zm-5.1 13.3h10.3l-5.1-12.2-5.2 12.2z"/></g><g id="stroke_outlined_copy"><path class="st1" d="M28.9 14.2L19.4 22.8 22.2 29.5z"/><path class="st1" d="M28.9 14.2L15.1 13.4 17.9 19.9z"/><path class="st1" d="M28.9 14.2L10.3 2.6 13.7 10.2z"/><g><path class="st1" d="M6.4 11.6L6.9 11.5 10.5 3.1 10.3 2.6z"/><path class="st1" d="M5 15L2 22 2.5 22 5.5 14.9z"/><path class="st1" d="M7 14.7L6.4 14.8 3.4 21.9 3.9 21.8z"/><path class="st1" d="M2.1 25L2.4 25.3 2.6 25z"/><path class="st1" d="M8.4 11.2L11.2 4.7 11 4.1 7.9 11.3z"/><path class="st1" d="M9.9 10.9L11.9 6.2 11.7 5.7 9.4 11.1z"/><path class="st1" d="M7.9 14.5L4.8 21.7 5.4 21.6 8.4 14.4z"/><path class="st1" d="M3.5 24.9L3.1 25.8 3.5 26.1 4 24.8z"/><path class="st1" d="M4.9 24.7L4.1 26.6 4.5 26.9 5.5 24.6z"/><path class="st1" d="M11.4 10.7L12.6 7.8 12.4 7.3 10.9 10.8z"/><path class="st1" d="M9.4 14.3L6.3 21.5 6.8 21.4 9.9 14.2z"/><path class="st1" d="M7.8 21.3L8.3 21.2 11.4 14 10.8 14.1z"/><path class="st1" d="M6.4 24.5L5.2 27.4 5.5 27.6 6.9 24.4z"/><path class="st1" d="M12.9 10.4L13.3 9.4 13.1 8.8 12.4 10.5z"/><path class="st1" d="M9.7 21L12.8 13.8 12.3 13.8 9.2 21.1z"/><path class="st1" d="M7.8 24.3L6.2 28.1 6.6 28.4 8.4 24.2z"/><path class="st1" d="M9.3 24.1L7.2 28.9 7.6 29.2 9.8 24z"/><path class="st1" d="M11.2 20.8L14.3 13.5 13.8 13.6 10.7 20.9z"/><path class="st1" d="M10.7 23.9L8.4 29.5 8.9 29.5 11.3 23.9z"/><path class="st1" d="M12.6 20.7L15.4 14.2 15.1 13.7 12.1 20.7z"/><path class="st1" d="M14.1 20.5L16.1 15.8 15.8 15.2 13.6 20.5z"/><path class="st1" d="M12.2 23.7L9.7 29.5 10.2 29.5 12.7 23.7z"/><path class="st1" d="M15.5 20.3L16.8 17.4 16.5 16.8 15 20.3z"/><path class="st1" d="M13.7 23.6L11.1 29.5 11.6 29.5 14.2 23.5z"/><path class="st1" d="M15.1 23.4L12.5 29.5 13 29.5 15.6 23.3z"/><path class="st1" d="M17 20.1L17.5 19 17.2 18.4 16.5 20.2z"/><path class="st1" d="M16.6 23.2L13.8 29.5 14.3 29.5 17.1 23.1z"/><path class="st1" d="M18 23L15.2 29.5 15.7 29.5 18.5 22.9z"/><path class="st1" d="M19.4 22.9L16.6 29.5 17.1 29.5 19.7 23.5z"/><path class="st1" d="M20.1 24.5L18 29.5 18.5 29.5 20.4 25.1z"/><path class="st1" d="M20.8 26.1L19.3 29.5 19.8 29.5 21 26.7z"/><path class="st1" d="M21.5 27.7L20.7 29.5 21.2 29.5 21.7 28.3z"/><path class="st1" d="M22.2 29.3L22.1 29.5 22.2 29.5z"/></g></g></svg>
